X:1
T:Venite exultemus - Byrd
T:James Gibb editions
T:#
%%score 1 2 3 4
L:1/8
Q:1/4=84
M:4/4
K:G
V:1 treble nm="Soprano I"
V:2 treble nm="Soprano II"
V:3 treble nm="Alto" snm="A"
V:4 treble-8 nm="Tenor" snm="T"
V:1
"^Venite exultemus""^William Byrd\n(1543-1623)" z8 |"^Psalm 94:1-2 (Vulgate)" z8 | G2 d4 B2 | %3
w: ||Ve- ni- te,|
 G>A Bc d3 d |[M:4/4] B (B2 A/G/ F G2) F | G4 G>A BG | (A>G F)E D4 | z2 d2 e c2 A | B2 G2 z4 | %9
w: ex- ul- te- mus Do- mi-|no, Do\- * * * * mi-|no, ex- ul- te- mus|Do\- * * mi- no;|ju- bi- le- mus|De- o,|
 z2 d2 e c2 A | B2 G2 z4 | d>c BB c2 A2 | B>A GG A2 F2 | z4 z d2 G | Bd (c>B A2) G2 | z8 | %16
w: ju- bi- le- mus|De- o,|ju- bi- le- mus De- o,|ju- bi- le- mus De- o|sa- lu-|ta- ri no\- * * stro,||
 z4 z2 d2- | d2 B2 cd (e2- | ed !>!d3 ^c/B/ c2) | d4 z2 d2 | e2 d2 B2 G2 | z c>cB (A G2 F) | %22
w: sa\-|* lu- ta- ri no\-||stro. Prae-|oc- cu- pe- mus|fa- ci- em e\- * *|
 G4 z4 | z ded B2 Gc- | c/c/B (AG F>G A2- | A2 ^G2) A4 | z8 | z2 B4 E2 | A2 G2 F4 | E4 z4 | %30
w: ius,|prae- oc- cu- pe- mus fa\-|* ci- em e\- * * * *|* * ius||in con-|fes- si- o-|ne,|
 z2 B4 d2 | ^c>B (B4 ^A2) | B8 ||[M:6/8] z4 z2 | z6 ||[M:4/4] z8 | ^G3 A B2 c2 || %37
w: in con-|fes- si- o\- *|ne,||||et in psal- mis|
[M:6/8] d2 c B2 A | B2 A G2 F ||[M:4/4] (GF/G/ AG) F4 | z8 | B3 B c2 B2 | z8 | d3 c B2 A2 | %44
w: ju- bi- le- mus,|ju- bi- le- mus|e\- * * * * i,||et in psal- mis||ju- bi- le- mus|
 (B>c de d4) | B2 (G3 F/E/ DA | FG) A2 z4 | d3 c B2 G2 | z4 G>A BG | d4 D4 | z d2 c B2 G2 | %51
w: e\- * * * *|i, e\- * * * *|* * i,|et in psal- mis|ju- bi- le- mus|e- i,|et in psal- mis|
 G>A BG B>c dB | (e d2 G) A4- | A4 ||[M:3/4][Q:1/4=126] d4 c2 | B2 G4 | z6 | z6 | B>c d2 c2 | %59
w: ju- bi- le- mus, ju- bi- le- mus|e\- * * i.||Al- le-|lu- ja.|||Al- le- lu- ja.|
 c>d e2 d2 |[M:3/4][Q:1/4=126][Q:1/4=126][Q:1/4=126][Q:1/4=126] z6 | z2 G>A B2 | A2 A>B c2 | %63
w: Al- le- lu- ja.||Al- le- lu-|ja. Al- le- lu-|
 B4 z2 | z6 | d3 G (AB | c3 BGA | Bc A4) | G4 z2 | e3 d (Bc) | d4 d2 x6 |[Q:1/4=84] d2 (d3 c) x2 || %72
w: ja.||Al- le- lu\- *|||ja.|Al- le- lu\- *|ja. Al-|le- lu\- *|
[M:4/4][Q:1/4=84][Q:1/4=84][Q:1/4=84] B8 | (c3 B/A/ GE G2- | G=FED) E4 | z2 (G4 d2- | d2 c4 BA) | %77
w: ja.|A\- * * * * *|* * * * men.|A\- *||
 B8 |] %78
w: men.|
V:2
{[De]} G2 d4 B2 | G>A Bc d3 d | B2 A>A B2 G2 | B3 (A/G/) F4 |[M:4/4] G2 d4 A2 | z2 G>A Bc d2- | %6
w: Ve- ni- te,|ex- ul- te- mus Do- mi-|no, ex- ul- te- mus|Do- mi\- * no,|ve- ni- te,|ex- ul- te- mus Do\-|
 dd A2 d3 c | B4 z4 | z2 d2 e c2 A | B2 G2 z4 | d>c BB c2 A2 | z4 z2 z d- | dGBd (c>B A2) | %13
w: * mi- no, Do- mi-|no;|ju- bi- le- mus|De- o,|ju- bi- le- mus De- o|sa\-|* lu- ta- ri no\- * *|
 G2 G>F ED (FG) | G4 z d2 B | cd (e3 d d2- | d^c/B/ c2) d4 | D3 D E2 E (F/G/ | A2 D2) A4 | %19
w: stro, sa- lu- ta- ri no\- *|stro, sa- lu-|ta- ri no\- * *|* * * * stro,|sa- lu- ta- ri no\- *|* * stro.|
 z ABA F2 D2 | z G>GF (G>A BE | AD) D2 z ded | B2 G2 z c>cB | (A G2 F) G4 | z4 z d>dc | %25
w: Prae- oc- cu- pe- mus|fa- ci- em e\- * * *|* * ius, prae- oc- cu-|pe- mus fa- ci- em|e\- * * ius|fa- ci- em|
 (Bc/d/ e>d) ^c4 | z8 | z8 | z4 B3 d | ^c>B (B4 ^A2) | B4 z2 F2- | FADE F4 | F4 z4 || %33
w: e\- * * * * ius|||in con-|fes- si- o\- *|ne, in|* con- fes- si- o-|ne,|
[M:6/8] z4 z2 | A2 G F2 E ||[M:4/4] (A3 G) F4 | z8 ||[M:6/8] z4 z2 | d2 c B2 A ||[M:4/4] (c4 B4) | %40
w: |ju- bi- le- mus|e\- * i,|||ju- bi- le- mus|e\- *|
 B4 z4 | z8 | B3 B c2 B2 | z8 | d3 c B2 A2 | G>A Bc B>c de | d4 B4 | z4 G3 F | E2 D2 z2 D>E | %49
w: i,||et in psal- mis,||et in psal- mis|ju- bi- le- mus, ju- bi- le- mus|e- i,|et in|psal- mis ju- bi\-|
 FD (G4 F2) | G4 z d2 c | B2 G2 G>A BG | B>c dB (e d2 ^c) | d4 ||[M:3/4] z6 | z6 | d4 c2 | B2 G4 | %58
w: le- mus e\- *|i, et in|psal- mis ju- bi- le- mus,|ju- bi- le- mus e\- * *|i.|||Al- le-|lu- ja.|
 z6 | z6 |[M:3/4] B>c d2 c2 | c>d e2 d2 | z6 | z2 G>A B2 | A2 A>B c2 | B4 z2 | z6 | z6 | d3 G (AB | %69
w: ||Al- le- lu- ja.|Al- le- lu- ja.||Al- le- lu-|ja. Al- le- lu-|ja.|||Al- le- lu\- *|
 c3 BGA | Bc A3 G x6 | G4 F2) x2 ||[M:4/4] G8 | G4 C2 z2 | (c3 B/A/ GE c2- | c2 BA B4) | G8 | G8 |] %78
w: |||ja.|A- men.|A\- * * * * *|* * * men.|A-|men.|
V:3
 z8 | z4 D2 G2- | G2 F2 G>G, B,C | D>C B,2 A,>B, CA, |[M:4/4] B,>A, G,2 A,4 | E4 D2 D>E | %6
w: |Ve- ni\-|* te, ex- ul- te- mus|Do- mi- no, ex- ul- te- mus|Do- mi- no, ve-|ni- te, ex- ul-|
 FG (A G2 F/E/ F)F | G2 G2 E A2 F | G2 D (G2 F/E/ A2) | G2 G2 G E2 D | DB, G>F EE F2 | %11
w: te- mus Do\- * * * * mi-|no; ju- bi- le- mus|De- o, De\- * * *|o, ju- bi- le- mus|De- o, ju- bi- le- mus De-|
 D2 G>F EE F2 | B, D2 B, A,2 A,2 | (B,3 A,) G,2 DE | D>D (EG) F2 z G- | GF E>D (CB,/A,/) D2 | %16
w: o, ju- bi- le- mus De-|o sa- lu- ta- ri|no\- * stro, sa- lu-|ta- ri no\- * stro, sa\-|* lu- ta- ri no\- * * stro,|
 z A2 G F>E (D>C) | B,4 z4 | A,3 B, ^CD (E>G) | F4 z2 F2 | E2 A2 G2 G,G- | G/G/F GD z B,CA, | %22
w: sa- lu- ta- ri no\- *|stro,|sa- lu- ta- ri no\- *|stro. Prae\-|oc- cu- pe- mus fa\-|* ci- em e- ius, prae- oc- cu-|
 B,2 D2 E>E D2 | (FGEA, E>D B,C | D>E FG AF E>F | GF E2) E4- | E4 z4 | z4 E3 G | F>E (E4 ^D2) | %29
w: pe- mus fa- ci- em|e\- * * * * * * *||* * * ius||in con-|fes- si- o\- *|
 E4 F3 A | G2 F2 F4- | F2 B,2 z4 | ^D3 E F2 G2 ||[M:6/8] A2 G F2 E | F2 E ^D2 E || %35
w: ne, in con-|fes- si- o\-|* ne,|et in psal- mis|ju- bi- le- mus,|ju- bi- le- mus|
[M:4/4] (F2 E3 ^D/^C/ D2) | E4 z4 ||[M:6/8] z4 z2 | z4 z2 ||[M:4/4] z8 | G3 F E2 D2 | E2 B,2 G4- | %42
w: e\- * * * *|i,||||et in psal- mis|ju- bi- le\-|
 G2 F2 E4 | A,2 D3 E F (E/F/) | (G3 G, B,A,/G,/ A,D | E D2 G,/A,/) B,2 z2 | D>E FD G>A BG | %47
w: * mus e-|i, ju- bi- le- mus *|e\- * * * * * *|* * * * i,|ju- bi- le- mus, ju- bi- le- mus|
 (A2 D4 EF) | G8 | z8 | D>C B,E G2 DG- | GD D4 D2 | G2 G G2 F E2 | F4 ||[M:3/4] F4 E2 | G2 D4 | %56
w: e\- * * *|i,||et in psal- mis ju- bi- le\-|* mus e- i,|ju- bi- le- mus e-|i.|Al- le-|lu- ja.|
 F4 E2 | G2 D4 | z2 D>E =F2 | E2 E>=F G2 |[M:3/4] D G2 B A2 | G2 z2 D>E | =F2 E2 E>F | G2 D2 D>E | %64
w: Al- le-|lu- ja.|Al- le- lu-|ja. Al- le- lu\-|ja. Al- le- lu-|ja. Al- le-|lu- ja. Al- le-|lu- ja. Al- le-|
 =F2 E2 G2- | GF (DE F2) | E2 E4 | D (G2 F/E/ F2) | G4 z2 | z2 G4 | F4 D8 |[M:4/4] D8 || %72
w: lu- ja. Al\-|* le- lu\- * *|ja. Al-|le- lu\- * * *|ja.|Al-|le- lu-|ja.|
 (C3 D EC D2) | G,4 z4 | (G3 F/E/ DG, B,2- | B,2) G,4 (DE/F/ | G2 G,2) D4 | x8 |] %78
w: A\- * * * *|men.|A\- * * * * *|* men. A\- * *|* * men.||
V:4
 z8 | z8 | z8 | G2 d4 B2 |[M:4/4][K:treble-8] G>A Bc d3 d | G c2 c B4 | A2 d4 A2 | d4 z4 | %8
w: |||Ve- ni- te,|ex- ul- te- mus Do- mi-|no, ex- ul- te-|mus Do- mi-|no,|
 d>c BB c2 A2 | d>c BB e2 A2 | z4 z2 d>c | BB (e3/2 d/ c/ B/ A2 d) | d4 z2 z d- | dGBd (c>B Ac) | %14
w: ju- bi- le- mus De- o,|ju- bi- le- mus De- o,|ju- bi-|le- mus De\- * * * * *|o sa\-|* lu- ta- ri no\- * * *|
 B2 z2 d>c B>A | (GA/B/ cd eA B2) | e4 d>c BA | G2 G g2 f e>d | (cBAD E4) | D4 z ABA | %20
w: stro, sa- lu- ta- ri|no\- * * * * * * *|stro, sa- lu- ta- ri|no- stro, sa- lu- ta- ri|no\- * * * *|stro. Prae- oc- cu-|
 c2 A2 z d>d^c | d2 B2 z2 z d | ed B2 G2 z d- | d/c/B A2 G4 | z d2 d D2 (A/B/c/A/ | B4) A4 | %26
w: pe- mus fa- ci- em|e- ius, prae-|oc- cu- pe- mus fa\-|* ci- em e- ius,|fa- ci- em e\- * * *|* ius|
 B3 E A2 G2 | (F4 E2 B2 | d2 G2) B4 | z e2 B d2 ^c2 | (B3 ^c d2 B2) | F2 B^c d2 c2 | B4 B4 || %33
w: in con- fes- si-|o\- * *|* * ne,|in con- fes- si-|o\- * * *|ne, in con- fes- si-|o- ne,|
[M:6/8] z4 z2 | z4 z2 ||[M:4/4] z8 | z e2 e e2 e2 ||[M:6/8][K:treble-8] d2 e g2 f | g2 e d2 d || %39
w: |||et in psal- mis|ju- bi- le- mus,|ju- bi- le- mus|
[M:4/4] (e2 f e2 ^d/^c/ d2) | e2 (EF) G4 | g3 f e2 d2 | d4 G4 | z4 d3 c | B2 G2 z4 | %45
w: e\- * * * * *|i, e\- * i,|ju- bi- le- mus|e- i,|et in|psal- mis|
 B>c de (d3 c/B/ | AB A2) G3 (B | A2 B2) G4 | G>A Bc (d3 c/B/) | A4 z d2 c | B2 G2 d>c Be | %51
w: ju- bi- le- mus e\- * *|* * * i, e\-|* * i,|ju- bi- le- mus e\- * *|i, et in|psal- mis ju- bi- le- mus|
 d2 B2 z2 g>d | B2 G2 (EF/G/ A2) | A4 ||[M:3/4] B3 B (c2 | d2) B4 | A3 B (c2 | d2) B4 | G>A B2 A2 | %59
w: e- i, ju- bi\-|le- mus e\- * * *|i.|Al- le- lu\-|* ja.|Al- le- lu\-|* ja.|Al- le- lu- ja.|
 A>B c2 B2 |[M:3/4][K:treble-8] z2 d>e =f2 | e2 e>=f g2 | d2 c2 A2 | G4 G2 | z2 cd e2 | d4 A2- | %66
w: Al- le- lu- ja.|Al- le- lu-|ja. Al- le- lu-|ja. Al- le-|lu- ja.|Al- le- lu-|ja. Al\-|
 AG (AB c2) | B2 d3 A | (Bc) d2 A2- | AG (EFGE | FGAB cd x6 | B2 A4) x2 ||[M:4/4][K:treble-8] G8 | %73
w: ~ le- lu\- * *|ja. Al- le-|lu\- * ja. Al\-|* le- lu\- * * *|||ja.|
 G4 G4 | z4 (!>!g3 f/e/ | de d4 D2) | G4 G4 | G8 |] %78
w: A- men.|A\- * *||men. A-|men.|

